X: 082
M: 12/8
L: 1/8
K: F
f |\
fcf afa gcg bgb | agf efg fed cde | fcf afa gcg bgb | agf cde f3 f2c |
fcf afa gcg bgb | agf efg fed cde | fed cBA Bcd cd_e | dba gfe f3 f2 |]


